src/icons/lifebuoy.svg

<?xml version="1.0" encoding="UTF-8"?>
<svg xmlns="http://www.w3.org/2000/svg" xmlns:xlink="http://www.w3.org/1999/xlink" width="32" height="32" viewBox="0 0 32 32" version="1.1">
<g id="surface1">
<path style=" stroke:none;fill-rule:nonzero;fill:rgb(0%,0%,0%);fill-opacity:1;" d="M 16 0.640625 C 15.25 0.640625 12.800781 0.734375 12.800781 1.921875 L 12.800781 8.960938 C 12.800781 9.664062 13.375 10.238281 14.078125 10.238281 C 14.160156 10.238281 14.246094 10.230469 14.320312 10.199219 C 14.324219 10.199219 14.890625 9.980469 16 9.980469 C 17.09375 9.980469 17.660156 10.191406 17.679688 10.199219 C 17.753906 10.230469 17.835938 10.238281 17.921875 10.238281 C 18.625 10.238281 19.199219 9.664062 19.199219 8.960938 L 19.199219 1.921875 C 19.199219 0.734375 16.75 0.640625 16 0.640625 Z M 8.21875 1.320312 C 6.703125 1.359375 4.933594 1.828125 3.378906 3.378906 C 0.269531 6.488281 1.484375 10.472656 1.878906 11.519531 C 1.898438 11.519531 1.902344 11.519531 1.921875 11.519531 L 8.960938 11.519531 C 9.449219 11.519531 9.890625 11.664062 10.28125 11.898438 C 10.726562 11.277344 11.277344 10.726562 11.898438 10.28125 C 11.664062 9.890625 11.519531 9.449219 11.519531 8.960938 L 11.519531 1.921875 C 11.519531 1.90625 11.519531 1.894531 11.519531 1.878906 C 10.996094 1.683594 9.734375 1.28125 8.21875 1.320312 Z M 23.21875 1.320312 C 21.957031 1.371094 20.941406 1.707031 20.480469 1.878906 C 20.480469 1.894531 20.480469 1.90625 20.480469 1.921875 L 20.480469 8.960938 C 20.480469 9.449219 20.335938 9.890625 20.101562 10.28125 C 20.722656 10.726562 21.273438 11.277344 21.71875 11.898438 C 22.109375 11.664062 22.550781 11.519531 23.039062 11.519531 L 30.078125 11.519531 C 30.097656 11.519531 30.101562 11.519531 30.121094 11.519531 C 30.515625 10.472656 31.730469 6.488281 28.621094 3.378906 C 26.871094 1.628906 24.84375 1.253906 23.21875 1.320312 Z M 8.300781 2.578125 C 8.820312 2.566406 9.300781 2.625 9.71875 2.699219 C 6.636719 4.15625 4.15625 6.636719 2.699219 9.71875 C 2.441406 8.296875 2.46875 6.128906 4.300781 4.300781 C 5.589844 3.007812 7.050781 2.609375 8.300781 2.578125 Z M 23.179688 2.578125 C 24.53125 2.507812 26.226562 2.824219 27.699219 4.300781 C 29.53125 6.128906 29.558594 8.296875 29.300781 9.71875 C 27.84375 6.636719 25.363281 4.15625 22.28125 2.699219 C 22.554688 2.648438 22.859375 2.597656 23.179688 2.578125 Z M 1.921875 12.800781 C 0.734375 12.800781 0.640625 15.25 0.640625 16 C 0.640625 16.75 0.734375 19.199219 1.921875 19.199219 L 8.960938 19.199219 C 9.664062 19.199219 10.238281 18.625 10.238281 17.921875 C 10.238281 17.839844 10.230469 17.753906 10.199219 17.679688 C 10.199219 17.675781 9.980469 17.109375 9.980469 16 C 9.980469 14.890625 10.199219 14.320312 10.199219 14.320312 C 10.234375 14.242188 10.238281 14.164062 10.238281 14.078125 C 10.238281 13.375 9.664062 12.800781 8.960938 12.800781 Z M 23.039062 12.800781 C 22.335938 12.800781 21.761719 13.375 21.761719 14.078125 C 21.761719 14.160156 21.769531 14.246094 21.800781 14.320312 C 21.800781 14.324219 22.019531 14.890625 22.019531 16 C 22.019531 17.109375 21.800781 17.679688 21.800781 17.679688 C 21.765625 17.757812 21.761719 17.835938 21.761719 17.921875 C 21.761719 18.625 22.335938 19.199219 23.039062 19.199219 L 30.078125 19.199219 C 31.265625 19.199219 31.359375 16.75 31.359375 16 C 31.359375 15.25 31.265625 12.800781 30.078125 12.800781 Z M 10.28125 20.101562 C 9.890625 20.335938 9.449219 20.480469 8.960938 20.480469 L 1.921875 20.480469 C 1.902344 20.480469 1.898438 20.480469 1.878906 20.480469 C 1.484375 21.527344 0.269531 25.511719 3.378906 28.621094 C 5.007812 30.246094 6.878906 30.679688 8.441406 30.679688 C 9.855469 30.679688 11.015625 30.308594 11.519531 30.121094 C 11.519531 30.105469 11.519531 30.09375 11.519531 30.078125 L 11.519531 23.039062 C 11.519531 22.550781 11.664062 22.109375 11.898438 21.71875 C 11.277344 21.273438 10.726562 20.722656 10.28125 20.101562 Z M 21.71875 20.101562 C 21.273438 20.722656 20.722656 21.273438 20.101562 21.71875 C 20.335938 22.109375 20.480469 22.550781 20.480469 23.039062 L 20.480469 30.078125 C 20.480469 30.09375 20.480469 30.105469 20.480469 30.121094 C 20.984375 30.308594 22.144531 30.679688 23.558594 30.679688 C 25.121094 30.679688 26.996094 30.246094 28.621094 28.621094 C 31.730469 25.511719 30.515625 21.527344 30.121094 20.480469 C 30.101562 20.480469 30.097656 20.480469 30.078125 20.480469 L 23.039062 20.480469 C 22.550781 20.480469 22.109375 20.335938 21.71875 20.101562 Z M 14.078125 21.761719 C 13.375 21.761719 12.800781 22.335938 12.800781 23.039062 L 12.800781 30.078125 C 12.800781 31.265625 15.25 31.359375 16 31.359375 C 16.75 31.359375 19.199219 31.265625 19.199219 30.078125 L 19.199219 23.039062 C 19.199219 22.335938 18.625 21.761719 17.921875 21.761719 C 17.839844 21.761719 17.753906 21.769531 17.679688 21.800781 C 17.675781 21.800781 17.109375 22.019531 16 22.019531 C 14.890625 22.019531 14.320312 21.800781 14.320312 21.800781 C 14.242188 21.765625 14.164062 21.761719 14.078125 21.761719 Z M 2.699219 22.28125 C 4.15625 25.363281 6.636719 27.84375 9.71875 29.300781 C 8.296875 29.558594 6.128906 29.53125 4.300781 27.699219 C 2.46875 25.871094 2.441406 23.703125 2.699219 22.28125 Z M 29.300781 22.28125 C 29.558594 23.703125 29.53125 25.871094 27.699219 27.699219 C 25.871094 29.53125 23.703125 29.558594 22.28125 29.300781 C 25.363281 27.84375 27.84375 25.363281 29.300781 22.28125 Z M 29.300781 22.28125 "/>
</g>
</svg>

<svg role="img" viewBox="0 0 32 32" xmlns="http://www.w3.org/2000/svg"><path d="M16 .64c-.75 0-3.2.094-3.2 1.282V8.96a1.28 1.28 0 0 0 1.278 1.277.631.631 0 0 0 .242-.039c.004 0 .57-.219 1.68-.219 1.094 0 1.66.211 1.68.22a.64.64 0 0 0 .242.038 1.28 1.28 0 0 0 1.277-1.277V1.92C19.2.735 16.75.642 16 .642m-7.781.68c-1.516.04-3.285.508-4.84 2.059-3.11 3.11-1.895 7.094-1.5 8.14H8.96c.488 0 .93.145 1.32.38a7.06 7.06 0 0 1 1.617-1.618 2.54 2.54 0 0 1-.378-1.32V1.879a9.083 9.083 0 0 0-3.301-.559m15 0a9.009 9.009 0 0 0-2.739.559V8.96c0 .488-.144.93-.378 1.32a7.06 7.06 0 0 1 1.617 1.617 2.54 2.54 0 0 1 1.32-.378h7.082c.395-1.047 1.61-5.032-1.5-8.141-1.75-1.75-3.777-2.125-5.402-2.059M8.3 2.578c.52-.012 1 .047 1.418.121a14.725 14.725 0 0 0-7.02 7.02c-.258-1.422-.23-3.59 1.602-5.418 1.289-1.293 2.75-1.692 4-1.723m14.879 0c1.351-.07 3.047.246 4.52 1.723 1.831 1.828 1.859 3.996 1.6 5.418a14.725 14.725 0 0 0-7.019-7.02 7.42 7.42 0 0 1 .899-.12M1.922 12.801C.734 12.8.64 15.25.64 16s.093 3.2 1.28 3.2h7.04a1.28 1.28 0 0 0 1.277-1.278.631.631 0 0 0-.039-.242c0-.004-.219-.57-.219-1.68 0-1.11.22-1.68.22-1.68a.565.565 0 0 0 .038-.242 1.28 1.28 0 0 0-1.277-1.277Zm21.117 0a1.28 1.28 0 0 0-1.277 1.277c0 .082.008.168.039.242 0 .004.219.57.219 1.68 0 1.11-.22 1.68-.22 1.68a.565.565 0 0 0-.038.242 1.28 1.28 0 0 0 1.277 1.277h7.04c1.187 0 1.28-2.449 1.28-3.199s-.093-3.2-1.28-3.2Zm-12.758 7.3a2.54 2.54 0 0 1-1.32.38H1.879c-.395 1.046-1.61 5.03 1.5 8.14 1.629 1.625 3.5 2.059 5.062 2.059a9.07 9.07 0 0 0 3.079-.559V23.04c0-.488.144-.93.378-1.32a7.06 7.06 0 0 1-1.617-1.617m11.438 0a7.06 7.06 0 0 1-1.617 1.618c.234.39.378.832.378 1.32v7.082a9.07 9.07 0 0 0 3.079.559c1.562 0 3.437-.434 5.062-2.059 3.11-3.11 1.895-7.094 1.5-8.14H23.04a2.54 2.54 0 0 1-1.32-.38m-7.64 1.66a1.28 1.28 0 0 0-1.28 1.277v7.04c0 1.187 2.449 1.28 3.199 1.28s3.2-.093 3.2-1.28v-7.04a1.28 1.28 0 0 0-1.278-1.277.631.631 0 0 0-.242.039c-.004 0-.57.219-1.68.219-1.11 0-1.68-.22-1.68-.22a.565.565 0 0 0-.242-.038m-11.38.52a14.725 14.725 0 0 0 7.02 7.02c-1.422.258-3.59.23-5.418-1.602-1.832-1.828-1.86-3.996-1.602-5.418m26.602 0c.258 1.422.23 3.59-1.602 5.418-1.828 1.832-3.996 1.86-5.418 1.602a14.725 14.725 0 0 0 7.02-7.02m0 0" style="stroke:none;fill-rule:nonzero;fill:rgb(0%,0%,0%);fill-opacity:1"/></svg>
